X:1
T:Trollspolska Harmony
T:Hambo in Dm
O:Sweden
Z:SG
M:3/4
Q:240
K:Dm
P:Harmony 1
A,2|"Dm"A,2 A,>^C D>E|"Dm"F2 F>A A>^c|"Dm"d>e d>A A2|"F"A>B A<FC2|
"Gm"G>A G>D D>G|"Dm" F>G F>E D2|"A7" ^C>D C>A, A,>C|1"Dm"A,2A,2 :|2"Dm"D2 D4||
|:"Dm"f>e d>^c d>f|"C"e>f e<c G2|"Dm"d>^c A>A A<d| "A"^c>d c<A E2|
"Bb"B>A G>^F G>B|"F" A>B A<F C2|"A" ^C>D C>A, A,>C|"Dm"D2 D4:|
||
P:Harmony 2
A2|"Dm"F2 F>A A>^c|"Dm"d2 d>e f>a|"Dm"a>a a>g f2|"F"f>f f<cA2|
"Gm"d>d d>d A>A|"Dm" d>d d>A A2|"A7" ^c>c c>E E>c|1"Dm"D2D2 :|2"Dm"D2 D4||
|:"Dm"d'>a a>a a2|"C"c'>c' c'<g e2|"Dm"a>a a>g f<g| "A"a>a a<e ^c2|
"Bb"g>d d>d d>g|"F" f>f f<c A2|"A" A>A A>A E>A|"Dm"D2 D4:|
